X: 66
T:Mc Kenna's Jig #1
M:6/8
L:1/8
S:Patrick Street
R:jig
K:D
D|:EAA ABd|cAG E2 D|EFG EFG|EAF GED|EAA ABd|cAG Ecd|cBc ABG|1FDD DEE :|2
FDD D2  e|
|:fed dcd |fed d2 e|fed efd|cAA A2 e|fga efg|fed fed|cBc ABG|1FDD D2 e:|
2FDD DEE ||
